X: 2
T: La Bastringue (also R-20; French Canadian)
C: M-11
M: C|
Z: Transcribed to abc by Mary Lou Knack
R: reel
K: D
"D"f2ff f2gf| "A7"e2c2 "D"d4| "A7"c2d2 efec| "D"d2e2 f2d2|
"D"f2ff f2gf| "A7"e2c2 "D"d4| "G"g2f2 efed| "A7"B2c2 "D"d4 :|
|:\
"D"D2FA dAFD| "C"=C2EG cGEC| "D"D2FA dAFD| "C"fedc "D"dcAF|
"D"D2FA dAFD| "C"=C2EG cGEC| "D"D2FA dAde| "C"fedc "D"d2d2 :|


#include "RightHeader.h"
%%footer 09/01/98 For use only by Roaring Jelly members
$SmallLMargin
$SmallRMargin
%%scale .9
